X:3629
L:1/8
Q:1/4=120
M:3/4
K:G
"^Moderato Spiritoso" G>GGG(Bd) | A>BAG(FD) | G>GGG(Bd) | (cB/A/) .B.B E2 || !fermata!g>fe^d eB | 
 g>fe^d e2 | g>fe^deB | (cB/A/) .B.B E>F ||

